package/converter/svg/regular/cloud-snow.svg

<svg xmlns="http://www.w3.org/2000/svg" viewBox="0 0 512 512"><!-- Font Awesome Pro 6.0.0-alpha2 by @fontawesome - https://fontawesome.com License - https://fontawesome.com/license (Commercial License) --><path d="M108 320H404C463.625 320 512 271.5 512 212C512 154.75 467.125 107.75 410.75 104.25C397.25 61.75 358 32 312 32C298.5 32 285.25 34.625 272.75 39.75C250.25 14.5 218.375 0 184 0C120 0 67.625 50.25 64.25 113.375C25.625 130.375 0 168.5 0 212C0 271.5 48.375 320 108 320ZM94.375 153.75L115.125 148.875L112.375 124C112.25 122.75 112 121.375 112 120C112 80.25 144.25 48 184 48C209.25 48 232.25 61.125 245.375 83.125L258.75 105.25L279.75 90.25C289.375 83.625 300.5 80 312 80C340.625 80 364.375 101.75 367.25 130.375L369.5 152H404C437.125 152 464 178.875 464 212S437.125 272 404 272H108C74.875 272 48 245.125 48 212C48 184 67.125 160 94.375 153.75ZM104 392H88V376C88 362.75 77.25 352 64 352S40 362.75 40 376V392H24C10.75 392 0 402.75 0 416S10.75 440 24 440H40V456C40 469.25 50.75 480 64 480S88 469.25 88 456V440H104C117.25 440 128 429.25 128 416S117.25 392 104 392ZM488 392H472V376C472 362.75 461.25 352 448 352S424 362.75 424 376V392H408C394.75 392 384 402.75 384 416S394.75 440 408 440H424V456C424 469.25 434.75 480 448 480S472 469.25 472 456V440H488C501.25 440 512 429.25 512 416S501.25 392 488 392ZM296 424H280V408C280 394.75 269.25 384 256 384S232 394.75 232 408V424H216C202.75 424 192 434.75 192 448S202.75 472 216 472H232V488C232 501.25 242.75 512 256 512S280 501.25 280 488V472H296C309.25 472 320 461.25 320 448S309.25 424 296 424Z"/></svg>

<svg xmlns="http://www.w3.org/2000/svg" viewBox="0 0 512 512"><!--! Font Awesome Pro 6.6.0 by @fontawesome - https://fontawesome.com License - https://fontawesome.com/license (Commercial License) Copyright 2024 Fonticons, Inc. --><path d="M112 120c0-39.8 32.2-72 72-72c25.8 0 48.5 13.6 61.2 34c3.8 6.1 10.1 10.2 17.2 11.1s14.3-1.3 19.5-6.2c10-9.3 23.4-15 38.1-15c29 0 52.9 22.1 55.7 50.4c1.2 12.3 11.6 21.7 23.9 21.6l.3 0s0 0 0 0c35.3 0 64 28.7 64 64s-28.7 64-64 64l-292 0-1.9 0c-.3 0-.7-.1-1-.1C73.3 270.4 48 244.2 48 212c0-28.3 19.6-52.1 46.1-58.4c11.8-2.8 19.6-13.9 18.3-25.9c-.3-2.5-.4-5.1-.4-7.7zM184 0C120 0 67.7 50.1 64.2 113.3C26.4 130.1 0 167.9 0 212c0 57.1 44.3 103.9 100.5 107.7c1.2 .2 2.3 .3 3.5 .3l4 0 292 0c61.9 0 112-50.1 112-112c0-55.2-39.9-101.1-92.5-110.3C406.5 55 366.9 24 320 24c-18 0-34.9 4.6-49.7 12.6C248.5 14.1 217.9 0 184 0zM64 352c-13.3 0-24 10.7-24 24l0 16-16 0c-13.3 0-24 10.7-24 24s10.7 24 24 24l16 0 0 16c0 13.3 10.7 24 24 24s24-10.7 24-24l0-16 16 0c13.3 0 24-10.7 24-24s-10.7-24-24-24l-16 0 0-16c0-13.3-10.7-24-24-24zm192 32c-13.3 0-24 10.7-24 24l0 16-16 0c-13.3 0-24 10.7-24 24s10.7 24 24 24l16 0 0 16c0 13.3 10.7 24 24 24s24-10.7 24-24l0-16 16 0c13.3 0 24-10.7 24-24s-10.7-24-24-24l-16 0 0-16c0-13.3-10.7-24-24-24zm216-8c0-13.3-10.7-24-24-24s-24 10.7-24 24l0 16-16 0c-13.3 0-24 10.7-24 24s10.7 24 24 24l16 0 0 16c0 13.3 10.7 24 24 24s24-10.7 24-24l0-16 16 0c13.3 0 24-10.7 24-24s-10.7-24-24-24l-16 0 0-16z"/></svg>
